X:1
T:Palo Alto, 87.87.88.87
T:Palo Alto, 87.87.88.87
T:Ira Allan Sankey, 1907
T:Public Domain Courtesy of the Cyber Hymnal™
C:Ira Allan Sankey, 1907
Z:Public Domain
Z:Courtesy of the Cyber Hymnal™
%%score ( 1 2 ) 3
L:1/8
Q:1/4=140
M:6/4
K:F
V:1 treble 
V:2 treble 
V:3 bass 
V:1
 [FA]2 [F^G]2 [FA]2 F2 [F=G]2 [FA]2 | [FB]6 [FA]6 | [Ec]2 [EG]2 [^D^F]2 [EG]2 [EA]2 [EB]2 | %3
 [FA]6- [FA]4 z2 | [FA]2 [F^G]2 [FA]2 [CF]2 [C=G]2 [FA]2 | [FB]6 [F=B]6 | %6
 [Fd]2 [Fc]2 [FA]2 [EG]2 [EB]2 [EA]2 | F6- F4 z2 | c2 c2 c2 c6- | c6- [Fc]4 z2 | A2 A2 A2 A6- | %11
 A6- [DA]4 z2 | [Ec]2 [F=B]2 [G_B]2 D2 [CE]2 [CG]2 | [CF]6 [^CA]6 | %14
 [DG]2 [DB]2 [Dd]2 D2 [CE]2 [CG]2 | [CF]6- [CF]4 z2 |] %16
V:2
 x6 F2 x4 | x12 | x12 | x12 | x12 | x12 | x12 | F6- F4 x2 | x12 | F2 E2 G2 x6 | x12 | %11
 D2 ^C2 E2 x6 | x6 D2 x4 | x12 | x6 D2 x4 | x12 |] %16
V:3
 [F,C]2 [F,=B,]2 [F,C]2 [F,A,]2 [F,_B,]2 [F,C]2 | [F,D]6 [F,C]6 | %2
 [C,B,]2 [C,B,]2 [C,A,]2 [C,B,]2 [C,C]2 [C,D]2 | [F,C]6- [F,C]4 z2 | %4
 [F,C]2 [F,=B,]2 [F,C]2 [_E,A,]2 [E,_B,]2 [E,C]2 | [D,B,]6 [_D,_A,]6 | %6
 [C,A,]2 [C,A,]2 [C,C]2 [C,B,]2 [C,D]2 [C,E]2 | [F,A,]6- [F,A,]4 z2 | C2 C2 C2 C6 | %9
 [C,A,]2 [C,G,]2 [C,B,]2 [F,,F,A,]4 z2 | A,2 A,2 A,2 A,6 | F,2 [A,,E,]2 [A,,F,]2 [D,F,]4 z2 | %12
 [C,G,]2 [D,G,]2 [E,C]2 [C,B,]2 [B,,G,]2 [B,,E,]2 | [A,,F,]6 [A,,F,]6 | %14
 [B,,F,]2 [B,,G,]2 [G,,G,B,]2 [C,B,]2 [C,B,]2 [E,B,]2 | [F,A,]6- [F,A,]4 z2 |] %16

